X: 29
T:Weel May The Kiel Row. HS.29
T:Keel Row,aka. HS.29
M:2/4
Q:120
C:"The Above as a Reel"
S:Henry Stables MS,Cumbria,late19thC
R:reel
O:Walthwaite,nr.Ambleside.
A:England
Z:vmp.Chris Partington
K:A
(e/d/)|c2Ac|d2Bd|c2Ac|BGE2|c2Ac|d2Bd|cABG|A3::!
(e/d/)|ce ea|f2ed|c2Ac|BGE2|ce ea|f2ed|cA BG|A3:||
